X:4619
L:1/8
M:3/2
K:Dmix
 D3 E | F2 A2 G2 ED CD E2 | D2 D2 D6 D2 |"^(a)" FGAB c4 AB c2 | d2 dc A6 D2 | FGAB c2 A2 B2 c2 | 
"^(b)" d2 dc A6 D2 | FG A2 G2 ED CD E2 | D2 D2 D4 |]"^(a) var. 1" F2 AB c2 A2 B2 c2 || 
"^(a) var. 2" FGAB c2 A2 B2 c2 | d2 d2 A6 D2 ||"^(b) var. 1" dcBc A6 D2 || 
"^(b) var. 2" d2 dc A6 DE ||

